frontend/public/svg/arrows/arrow-left.svg

<svg width="151" height="84" viewBox="0 0 151 84" fill="none" xmlns="http://www.w3.org/2000/svg">
<path d="M82.7399 41.3499C100.736 41.2042 118.732 41.0874 136.728 40.8905C140.315 40.8505 143.907 40.5689 147.48 40.2178C148.071 40.1535 148.629 39.9124 149.08 39.5259C149.532 39.1395 149.857 38.6258 150.012 38.0518C150.305 37.133 149.285 35.8295 148.067 35.6378C146.886 35.4521 145.71 35.1639 144.523 35.0924C136.94 34.6329 129.358 33.9826 121.768 33.8454C106.175 33.5651 90.5773 33.4943 74.9807 33.4765C60.1836 33.4595 45.3858 33.6439 30.5886 33.6787C28.2127 33.6846 25.8354 33.3853 23.4634 33.1733C23.306 33.1345 23.1609 33.0567 23.0414 32.9472C22.9219 32.8377 22.8318 32.6999 22.7795 32.5465C22.7368 32.1803 22.8452 31.562 23.0887 31.4307C27.6358 28.9589 32.1271 26.3585 36.8029 24.1526C47.6803 19.0207 57.8844 12.7277 68.0813 6.41374C69.7569 5.37607 71.5132 4.322 72.1893 2.26307C72.312 1.8883 72.5037 1.24641 72.3475 1.12105C71.788 0.599524 71.1082 0.224493 70.3686 0.029504C69.581 -0.0633942 68.783 0.064092 68.0635 0.397733C65.5156 1.55223 62.9861 2.75664 60.5071 4.05094C42.786 13.3014 25.101 22.6069 7.37069 31.8324C0.682603 35.311 -2.49542 38.6846 5.53291 46.3329C7.84584 48.5375 10.1857 50.7389 12.7008 52.6993C24.3652 61.8006 36.0723 70.8462 47.8221 79.8362C49.4375 80.9957 51.1411 82.0271 52.9173 82.9211C54.0757 83.5499 55.2354 83.1764 56.2356 82.4229C57.3363 81.5926 58.0196 79.1793 57.6402 78.118C56.7968 75.7617 55.1166 74.033 53.3123 72.4676C46.3648 66.4411 39.3803 60.4579 32.3588 54.518C27.7959 50.6365 23.1851 46.812 18.6295 42.9225C18.4043 42.7302 18.3932 42.1349 18.4844 41.7766C18.5443 41.6215 18.6409 41.4833 18.766 41.3737C18.8911 41.2642 19.0408 41.1867 19.2025 41.1478C21.583 40.9916 23.9688 40.7927 26.3519 40.8052C45.1486 40.9045 63.9452 41.0283 82.7419 41.1766L82.7399 41.3499Z" fill="black"/>
</svg>

<svg xmlns="http://www.w3.org/2000/svg" width="151" height="84" fill="none" viewBox="0 0 151 84"><path fill="#000" d="M82.74 41.35c17.996-.146 35.992-.263 53.988-.46 3.587-.04 7.179-.321 10.752-.672a2.95 2.95 0 0 0 2.532-2.166c.293-.919-.727-2.222-1.945-2.414-1.181-.186-2.357-.474-3.544-.546-7.583-.46-15.165-1.11-22.755-1.247-15.593-.28-31.19-.35-46.787-.368-14.797-.017-29.595.167-44.392.202-2.376.006-4.754-.294-7.126-.506a.97.97 0 0 1-.684-.626c-.042-.367.066-.985.31-1.116 4.547-2.472 9.038-5.073 13.714-7.278C47.68 19.02 57.884 12.728 68.08 6.413c1.676-1.037 3.432-2.091 4.108-4.15.123-.375.315-1.017.159-1.142A4.64 4.64 0 0 0 70.367.03a4.3 4.3 0 0 0-2.304.368 151 151 0 0 0-7.557 3.653C42.786 13.3 25.101 22.607 7.371 31.832c-6.688 3.479-9.866 6.853-1.838 14.5 2.313 2.206 4.653 4.407 7.168 6.367a4681 4681 0 0 0 35.121 27.137 38 38 0 0 0 5.095 3.085c1.159.629 2.318.255 3.319-.498 1.1-.83 1.784-3.244 1.404-4.305-.843-2.356-2.523-4.085-4.328-5.65a2228 2228 0 0 0-20.953-17.95c-4.563-3.882-9.174-7.706-13.73-11.596-.225-.192-.236-.787-.145-1.145a1.03 1.03 0 0 1 .718-.63c2.381-.155 4.767-.354 7.15-.342q28.195.15 56.39.372z"/></svg>
